!!!SOCIAL_FUNCTION:	songs of the peyote ceremony
!!!PDT:	1936
!!!OTL: No_50_Opening_Song_of_Peyote_Ceremony.krn
!!!REG: Oklahoma and Montana
!!!LANG: Tone
!!!LING_GROUP: Algonquin
**kern
*staff1
=1-
*clefF4
*k[f#c#]
*M3/4
2r
8.d\L
16A\Jk
=2
4d\
4d\
4d\
=3
*M2/4
8A\L
8d\J
8d\L
8A\J
=4
*M3/4
4A\
(8A\L
16F#\Jk)
16r
8.d\L
16A\Jk
=5
4d\
4d\
4d\
=6
*M2/4
8A\L
8d\J
8d\L
8A\J
=7
8A\L
8A\J
8A\
8r
=8
8B\L
8B\J
8B\L
8B\J
=9
8B\L
8d\J
8A\L
8F#\J
=10
(8.F#\L
16D\Jk)
8D\L
8D\J
=11
*M3/4
4D\
8D\L
8D\J
8D\
8r
=12
*M2/4
(8.F#\L
16D\Jk)
8D\L
8D\J
=13
4D\
4D\
=14
*M3/4
8AA/L
8D/J
8D\L
8D\J
4D\
=15
4D\
4D\
4D\
=16
4D\
4r
4A\
=17
4A\
4A\
4A\
=18
*M2/4
8E\L
8A\J
8A\L
8E\J
=19
8E\L
8E\J
8E\
8r
=20
*M3/4
8F#\L
8E\J
8D\L
8E\J
8E\L
8D\J
=21
*M2/4
8D\L
8D\J
8D\
8r
=22
(8.E\L
16D\Jk)
8D\L
8D\J
=23
4D\
4D\
=24
*M3/4
8AA/L
8D/J
8D\L
8D\J
8D\
8r
=25
4D\
4D\
4D\
=26
4D\
2r
==
*-
